src/public/img/landing/new/external-websites/olx.svg

<svg width="42" height="24" viewBox="0 0 42 24" fill="none" xmlns="http://www.w3.org/2000/svg">
<path d="M28 0V24H22.001V0H28ZM10.003 1.99475C15.526 1.99475 20.006 6.47419 20.006 11.9965C20.006 17.5188 15.526 21.9983 10.003 21.9983C4.48 21.9983 0 17.5188 0 11.9965C0 6.47419 4.48 1.99475 10.003 1.99475ZM34.244 5.99825L36.001 7.75503L37.758 5.99825H42V10.2397L40.243 11.9965L42 13.7533V17.9948H37.758L36.001 16.238L34.244 17.9948H30.002V13.7533L31.759 11.9965L30.002 10.2397V5.99825H34.244ZM10.003 8C7.798 8 6.006 9.79178 6.006 11.9965C6.006 14.2012 7.798 15.993 10.003 15.993C12.208 15.993 14 14.2012 14 11.9965C14 9.79178 12.208 8 10.003 8Z" fill="black"/>
</svg>

<svg xmlns="http://www.w3.org/2000/svg" width="42" height="24" fill="none">
  <path fill="#000" d="M28 0v24h-5.999V0H28ZM10.003 1.995c5.523 0 10.003 4.48 10.003 10.002s-4.48 10.001-10.003 10.001S0 17.518 0 11.996 4.48 1.995 10.003 1.995Zm24.241 4.003 1.757 1.757 1.757-1.757H42v4.242l-1.757 1.756L42 13.753v4.242h-4.242l-1.757-1.757-1.757 1.757h-4.242v-4.242l1.757-1.757-1.757-1.756V5.998h4.242ZM10.003 8a4 4 0 0 0-3.997 3.996 4 4 0 0 0 3.997 3.997A4 4 0 0 0 14 11.996 4 4 0 0 0 10.003 8Z"/>
</svg>
